X: 9824
T: Denis O'Connor
R: jig
M: 6/8
K: Dminor
f Ted cAG|FAG A/2B/2cA|GEC FED|CEc DFd|
e3/4f/4ec f3/4g/4fd|g3/4a/4ge a3/4b/4af|g3/4a/4g/2f/2e f3/4g/4f/2e/2d|e3/4f/4e/2d/2c d3/4e/4d/2c/2A|
c/2d/2c/2A/2G FGA|d2c c2A|Ac/2A/2G F3|GF/2E/2D C3|
CEC CEC|GE/2F/2G FDD|dDD FDD|fd/2e/2f f/2e/2d/2e/2f/2e/2|
AcA e/2d/2c/2d/2e/2d/2|GBG d/2c/2B/2c/2d/2c/2|FAF c/2A/2G/2A/2c/2A/2|DFD A/2G/2F/2G/2A/2G/2|
CEC c2d|cAF G2A|GEC FED|CA,C DA,F|
ECG FDA|GEc AFd|cGe ddf|Te2d TcAA|
A=B/2c/2d AB/2c/2d|cAF GEC|FED CA,D|D3D3||

